ix/scanner_outline.svg

<svg viewBox="0 0 24 24" fill="none" xmlns="http://www.w3.org/2000/svg" height="1em" width="1em">
  <path d="M22 9.75c-.41 0-.75-.34-.75-.75V7c0-2.58-1.67-4.25-4.25-4.25H7C4.42 2.75 2.75 4.42 2.75 7v2c0 .41-.34.75-.75.75s-.75-.34-.75-.75V7c0-3.44 2.31-5.75 5.75-5.75h10c3.44 0 5.75 2.31 5.75 5.75v2c0 .41-.34.75-.75.75Zm-5 13H7c-3.44 0-5.75-2.31-5.75-5.75v-2c0-.41.34-.75.75-.75s.75.34.75.75v2c0 2.58 1.67 4.25 4.25 4.25h10c2.58 0 4.25-1.67 4.25-4.25v-2c0-.41.34-.75.75-.75s.75.34.75.75v2c0 3.44-2.31 5.75-5.75 5.75Zm5-10H2c-.41 0-.75-.34-.75-.75s.34-.75.75-.75h20c.41 0 .75.34.75.75s-.34.75-.75.75Z" fill="#292D32"/>
</svg>

<svg viewBox="0 0 24 24" fill="none" xmlns="http://www.w3.org/2000/svg" height="1em" width="1em">
  <path d="M22 9.75C21.59 9.75 21.25 9.41 21.25 9V7C21.25 4.42 19.58 2.75 17 2.75H7C4.42 2.75 2.75 4.42 2.75 7V9C2.75 9.41 2.41 9.75 2 9.75C1.59 9.75 1.25 9.41 1.25 9V7C1.25 3.56 3.56 1.25 7 1.25H17C20.44 1.25 22.75 3.56 22.75 7V9C22.75 9.41 22.41 9.75 22 9.75Z" fill="#292D32"/>
  <path d="M17 22.75H7C3.56 22.75 1.25 20.44 1.25 17V15C1.25 14.59 1.59 14.25 2 14.25C2.41 14.25 2.75 14.59 2.75 15V17C2.75 19.58 4.42 21.25 7 21.25H17C19.58 21.25 21.25 19.58 21.25 17V15C21.25 14.59 21.59 14.25 22 14.25C22.41 14.25 22.75 14.59 22.75 15V17C22.75 20.44 20.44 22.75 17 22.75Z" fill="#292D32"/>
  <path d="M22 12.75H2C1.59 12.75 1.25 12.41 1.25 12C1.25 11.59 1.59 11.25 2 11.25H22C22.41 11.25 22.75 11.59 22.75 12C22.75 12.41 22.41 12.75 22 12.75Z" fill="#292D32"/>
</svg>
